X:1
T: The Man in the Moon
P:Roche version
R:Jig
Q:180
K:D
M:6/8
L:1/16
DE|:F4A2 d4A2|B4A2 d4A2|B2c2d2 A4G2|E6E6|
F4A2 d4A2|B4A2 d4A2|B2c2d2 A4F2|1D6D4E2:|2D6D6|
|:d4f2 f2f2f2|e4d2 e4f2|g4a2 f4d2|f4e2e6|
e4f2 f2f2f2|e4d2 e4f2|a4f2 d4B2|1A4F2D6:|2A4F2D4||
